X:1
T:James Gibb editions
T:Psalm 47 (Becker) - Schütz
%%score [ ( 1 2 ) ( 3 4 ) ]
L:1/8
Q:1/4=100
M:3/4
K:C
V:1 treble nm="Soprano Alto"
V:2 treble 
V:3 bass nm="Tenor Bass"
V:4 bass 
V:1
"^Cornelius Becker\n(1561-1604)""^Psalm 47, SWV 144""^Heinrich Schütz\n(1585-1672)" G2 | %1
w: ~Froh-|
 (B2 d2) c2 | B4 A2 | B4 ^c2 | d4 e2 | d4 c2 | B4 d2 | c2 B2 A2 | G4 || G2 | A4 B2 | (c2 e2) d2 | %12
w: lockt * mit|Freud, ihr|Völ- ker|all, und|jauch- zet|Gott mit|fröh- li- chem|Schall,||||
 c4 d2 | c4 e2 | c4 B2 | c4 c2 | d2 c4 | B4 | e2 c2 B4 | c4 e2 | c2 B4 | A4 c2 | B2 A4 | G6- | %24
w: ||||||Hal- le- lu-|ja, Hal-|le- lu-|ja, Hal-|le- lu-|ja.|
 G4 |] %25
w: |
V:2
 D2 | G4 E2 | G4 A2 | D4 G2 | ^F4 G2 | G4 E2 | E4 D2 | E2 D2 D2 | D4 || D2 | F4 G2 | (E2 G2) G2 | %12
w: |||||||||der|Al- ler-|höchst * ist|
 (C2 E2) G2 | G4 A2 | A4 ^G2 | A4 A2 | F2 E4 | E4 | E2 G2 G4 | G4 A2 | E2 E4 | E4 F2 | D2 D4 | %23
w: mäch\- * tig|sehr, der|gan- zen|Welt Kö-|nig und|Herr,||||||
 D6- | D4 |] %25
w: ||
V:3
 B,2 | (D2 B,2) C2 | D4 D2 | B,4 G,2 | A,4 C2 | B,4 A,2 | G,4 B,2 | E,2 G,2 ^F,2 | G,4 || B,2 | %10
 C4 E2 | (C2 B,2) B,2 | (E2 C2) B,2 | C4 C2 | E4 E2 | E4 A,2 | A,2 A,4 | ^G,4 | %18
"^3. Mit Jauchzen fährt auf Gottes Sohn, der Herr mit hell'r Posaunen Ton,\nlobsingt, lobsinget unserm Gott, der überwand Sünd, Höll und Tod,\nHalleluja, Halleluja, Halleluja.\n\n4. Christus ist aller Welt ein Herr, lobsingt ihm klüglich, preist sein Ehr,\nsein Herrschaft, über alle gleich, bringt auch die Heiden zu seim Reich,\nHalleluja, Halleluja, Halleluja.\n\n5. Auch Fürsten und die mächtig sein, nimmt er auf zu der Christengemein,\nwenn sie nur geben Gott die Ehr, schützen die Kirch und reine Lehr,\nHalleluja, Halleluja, Halleluja." G,2 C2 D4 | %19
 E4 C2 | A,2 ^G,4 | A,4 A,2 | G,2 ^F,4 | G,6- | G,4 |] %25
V:4
 G,2 | G,4 A,2 | G,4 ^F,2 | G,4 E,2 | D,4 C,2 | G,4 A,2 | E,4 B,,2 | C,2 G,,2 D,2 | G,,4 || G,2 | %10
 F,4 E,2 | (A,2 E,2) G,2 | (A,2 C2) G,2 | C,4 A,2 | A,4 E,2 | A,4 F,2 | D,2 A,,4 | E,4 | %18
 C,2 E,2 G,4 | C,4 A,,2 | C,2 E,4 | A,,4 F,,2 | G,,2 D,4 | G,,6- | G,,4 |] %25

